X: 10585
T: Double Figure Eight
R: reel
M: 4/4
K: Dmajor
|:d2 A2 F2 A2|B2 e2 dcBA|d2 f2 agfe|d2 f2 agfe|
d2 A2 F2 A2|B2 e2 dcBA|d2 f2 agfe|1 d2 c2 d2 A2:|2 d2 c2 d2||
|:z2|gfed cdef|gfed cdef|g2 g2 g2 g2|gfed c2 A2|
d2 A2 F2 A2|B2 e2 dcBA|d2 f2 agfe|1 d2 c2 d2:|2 d2 c2 d2 z2||

